X:1
T:Survivor Leave
M:4/4
L:1/4
K:F
 C- C| A3/2 A/2 B A| G/2 F2 z/2F/2-F/2| F3/2 F/2 G F| E D3/2 z/2| F|\
 G3/2 A/2 G F| E3/2 F/2 E D| C4-| C2 z C/2C/2| A3/2 A/2 B A| G/2 F2 z/2F/2-F/2|\
 F3/2 F/2 G F| E D2 F/2F/2| G3/2 A/2 G F| E C A G| F4| z F G A| B4-|\
 B F F G| A4-| A z2 F/2F/2| G3/2 A/2 G F| E C A3/2 G/2| F4-| F z||\


